X:1
T:Barrow, CM
T:Barrow, CM
T:Anonymous, before 1909
T:Public Domain Courtesy of the Cyber Hymnal™
C:Anonymous, before 1909
Z:Public Domain
Z:Courtesy of the Cyber Hymnal™
%%score ( 1 2 ) ( 3 4 )
L:1/8
Q:1/4=130
M:6/4
K:Eb
V:1 treble 
V:2 treble 
V:3 bass 
V:4 bass 
V:1
 [EB]4 | [EG]2 [EA]2 [EB]4 [Ee]4 | [Ed]2 [Ec]2 [EB]4 [Ec]4 | [EB]2 [FA]2 [EG]4 ([DF]2 [CE]2) | %4
 [DF]8 [DB]4 | [EG]2 [EA]2 [EB]4 [Ee]4 | [Fd]2 [Ec]2 [DB]4 [EG]4 | [EB]2 [EA]2 [EG]4 [DF]4 | E8 |] %9
V:2
 x4 | x12 | x12 | x12 | x12 | x12 | x12 | x12 | E8 |] %9
V:3
 [E,G,]4 | E,2 [E,F,]2 [E,G,]4 [E,C]4 | [E,B,]2 [E,A,]2 [E,G,]4 A,4 | %3
 [G,B,]2 [D,B,]2 [E,B,]4 ([B,,B,]2 [C,G,]2) | [B,,B,]8 [B,,F,]4 | E,2 [E,F,]2 [E,G,]4 [G,B,]4 | %6
 [F,B,]2 [F,=A,]2 [B,,B,]4 [E,B,]4 | [G,B,]2 [A,C]2 B,4 [B,,A,]4 | [E,G,]8 |] %9
V:4
 x4 | E,2 x10 | x8 A,4 | x12 | x12 | E,2 x10 | x12 | x4 B,4 x4 | x8 |] %9

